X:1
T: Moon and Seven Stars, The
I: Moon and Seven Stars, The	J-65	D	jig
Z: Transcribed to abc by Mary Lou Knack
R: jig
M: 6/8
K: D
A| "D"d2A AGF| "G"GAB "D"A2A| "G"Bcd efg| "A"fed cBA|
"D"d2A AGF| "G"GAB "D"A2A| "G"Bcd efg| "A"Adc "D"d2 :|
|: "A"e2A ABA| efg "D"f3| "A"efg "D"fed| "E"cdB "A"A2A|
"G"BGB "D"A2A| "G"BGB "D"A2A| "G"Bcd efg| "A"Adc "D"d3 :|
%%text Roaring Jelly J-65

